icons/pencil.svg

<svg width="14" height="14" viewBox="0 0 14 14" fill="none" xmlns="http://www.w3.org/2000/svg">
<path d="M9.5859 2.5C10.643 2.50008 11.4999 3.35699 11.5 4.41406C11.5 4.92167 11.2983 5.40861 10.9394 5.76758L6.35348 10.3535C6.35119 10.3558 6.34799 10.3571 6.34567 10.3594C6.33051 10.374 6.31393 10.3867 6.29684 10.3994C6.2849 10.4083 6.27322 10.4171 6.26071 10.4248C6.24732 10.433 6.23303 10.4393 6.21872 10.4463C6.20406 10.4535 6.18992 10.4611 6.17477 10.4668C6.16915 10.4689 6.16391 10.4727 6.15817 10.4746L3.15817 11.4746C2.97855 11.5344 2.78032 11.4874 2.64645 11.3535C2.51264 11.2196 2.46552 11.0214 2.52536 10.8418L3.52536 7.8418C3.52748 7.83543 3.53082 7.82947 3.53317 7.82324C3.53811 7.81018 3.54468 7.79785 3.55075 7.78516C3.55906 7.76772 3.56703 7.75045 3.57712 7.73438C3.58354 7.72416 3.59136 7.71491 3.5986 7.70508C3.61106 7.68812 3.62333 7.67133 3.63766 7.65625C3.64067 7.65308 3.64335 7.64959 3.64645 7.64648L8.23239 3.06055C8.59131 2.70171 9.07837 2.50006 9.5859 2.5ZM4.43747 8.26953L3.79098 10.209L5.73044 9.5625L9.29294 6L7.99997 4.70703L4.43747 8.26953ZM9.5859 3.5C9.34359 3.50006 9.1108 3.59628 8.93942 3.76758L8.707 4L9.99997 5.29297L10.2324 5.06055C10.4037 4.88911 10.5 4.65646 10.5 4.41406C10.4999 3.90928 10.0907 3.50008 9.5859 3.5Z" fill="red"/>
</svg>

<svg xmlns="http://www.w3.org/2000/svg" width="14" height="14" fill="none" viewBox="0 0 14 14"><path fill="red" d="M9.586 2.5a1.914 1.914 0 0 1 1.353 3.268l-4.586 4.586-.007.005-.05.04q-.017.015-.035.026l-.042.021q-.023.012-.044.02l-.017.009-3 1a.5.5 0 0 1-.633-.633l1-3 .008-.019.018-.038q.012-.027.026-.05l.022-.03q.017-.026.039-.049l.008-.01 4.586-4.585c.36-.36.846-.56 1.354-.561M4.437 8.27l-.646 1.939 1.94-.646L9.292 6 8 4.707zM9.586 3.5a.92.92 0 0 0-.647.268L8.707 4 10 5.293l.232-.232A.915.915 0 0 0 9.586 3.5"/></svg>
